Yaru++/status/symbolic/auth-sim-missing-symbolic.svg

<svg height="16" width="16" xmlns="http://www.w3.org/2000/svg"><path d="m4 0c-2 0-2 2-2 2v12c0 2 2 2 2 2h8s2 0 2-2v-11l-3-3zm4.1113281 1h.0019531c.7156945 0 1.344699.0966587 1.9062498.3417969l-.003906-.0058594c.00452.00184.007219.0059525.011719.0078125.00632.00278.015184.0010862.021484.0039062l.591797.265625v.140625c.234153.1507504.506043.2593066.691406.4609376.33651.3607548.577339.7994822.707031 1.2753906.119454.3821331.186354.7792079.189454 1.1796875v.0039062.0039063c0 .4972746-.101667.9822148-.308594 1.4140625l-.003906.0078125-.003907.0078125c-.040747.0812089-.091638.1587434-.136718.2382812.221326.2891355.224609.6542969.224609.6542969l-.001953 1.0019531h-1.591797c-.204254.1909929-.395731.3855204-.5644531.5898438l-.015625.0195312v.0019531c-.1029204.1193581-.1923466.2513308-.2753907.3886719h2.4472658v1.9980469h.001953v2c0 1-1 1-1 1l-1.0019531-.001953.0019531-2.996094h-.671875l.0058594.115235h-1.1308594c.4107473.08193.8492829.17238 1.1230469.476562.3289497.365358.53125.895649.53125 1.386719 0 .490827-.2018344 1.018969-.5332031 1.386719v.001953c-.3623731.401044-.9571357.628906-1.484375.628906-.5301283 0-1.1232741-.229637-1.484375-.630859-.1494659-.165878-.2679995-.366071-.3574219-.580079v.214844l-.9980469-.001953c-1 0-1-1-1-1l-.0019531-.998047h2v.162109c.090248-.208853.209868-.406304.3671875-.576171.2714172-.295774.7047016-.388646 1.1113281-.470703h-1.1210937l-.0195313-.115235h-2.3378906v-1.9999999h2.1953125c.0392035-.2703133.0991151-.5369269.203125-.7910156l.0097656-.0214844.0078125-.0195312c.1432274-.3104421.3257707-.5997939.5332031-.8710938l.0175782-.0332031.0332031-.0410156v-1.21875h1.1132812c.0808048-.0859072.1660203-.1713085.2441407-.2578125l-.0039063.0019531c.1552564-.1730849.271611-.343408.359375-.5175781l.0078125-.0136719.0078125-.0136719c.064554-.1187974.0957031-.2361095.0957031-.390625 0-.2772231-.0580485-.3924812-.1875-.5175781l-.0078125-.0058594-.0058593-.0058594c-.1009946-.1009946-.2816183-.1992187-.7128907-.1992187-.5343482 0-1.0670415.1439939-1.625.421875l-1.203125.8945313-1.6699219-2.5839844 1.5058594-1.0488282.0605469-.03125c.4355262-.2223163.894401-.3966614 1.3671875-.5214843l.0039062-.0019531h.0019532c.5622896-.1444198 1.152421-.2148438 1.7617187-.2148438zm1.8886719 10.001953h1.998047v-.001953h-1.998047zm.023438-8.142578c.002199.00209.001706.0057125.003906.0078125.0021.00214.005712.0017563.007812.0039063zm-5.023438 3.140625.9980469.0058594v2h-2l.0019531-1.0058594s0-1 1-1zm2.6171875 2.3652344-.0078125.0175781c.00166-.00347.0041994-.0063056.0058594-.0097656.0012039-.00243.0007431-.0053825.0019531-.0078125z" fill="#404040" opacity=".5"/><path d="m8.271 2.037c-.533 0-1.037.061-1.512.183a5.853 5.853 0 0 0 -1.167.446l-.658.458.566.876.452-.336c.688-.35 1.394-.54 2.116-.54.607 0 1.09.16 1.421.491.327.316.493.737.493 1.236 0 .311-.073.603-.217.868-.13.258-.299.503-.508.736-.205.227-.42.455-.648.682v.001a6.392 6.392 0 0 0 -.633.7l-.001.002a3.66 3.66 0 0 0 -.492.786 2.378 2.378 0 0 0 -.177.935c0 .208.024.403.056.594h1.088c-.001-.023-.01-.044-.01-.068v-.187c0-.387.077-.74.232-1.05.15-.314.336-.599.557-.855l.002-.002c.218-.264.458-.515.721-.755a7.23 7.23 0 0 0 .7-.734c.21-.253.384-.522.527-.807.138-.288.209-.613.209-.982a3.06 3.06 0 0 0 -.147-.914l-.001-.002v-.002a2.04 2.04 0 0 0 -.482-.867c-.234-.255-.552-.466-.957-.63v-.002c-.385-.172-.895-.261-1.528-.261zm-.27 9.963c-.326 0-.562.1-.743.3a1.025 1.025 0 0 0 -.275.718c0 .279.089.512.275.718.18.2.417.3.742.3s.562-.099.743-.3c.186-.206.275-.44.275-.718 0-.28-.089-.512-.275-.718-.18-.2-.418-.3-.743-.3z" fill="#808080" transform="translate(-.161 -.0365)"/></svg>

<?xml version="1.0" encoding="UTF-8" standalone="no"?>
<svg
   xmlns:dc="http://purl.org/dc/elements/1.1/"
   xmlns:cc="http://creativecommons.org/ns#"
   xmlns:rdf="http://www.w3.org/1999/02/22-rdf-syntax-ns#"
   xmlns:svg="http://www.w3.org/2000/svg"
   xmlns="http://www.w3.org/2000/svg"
   xmlns:sodipodi="http://sodipodi.sourceforge.net/DTD/sodipodi-0.dtd"
   xmlns:inkscape="http://www.inkscape.org/namespaces/inkscape"
   width="16"
   height="16"
   version="1.1"
   id="svg4"
   sodipodi:docname="auth-sim-missing-symbolic.svg"
   inkscape:version="0.92.4 (5da689c313, 2019-01-14)">
  <metadata
     id="metadata10">
    <rdf:RDF>
      <cc:Work
         rdf:about="">
        <dc:format>image/svg+xml</dc:format>
        <dc:type
           rdf:resource="http://purl.org/dc/dcmitype/StillImage" />
        <dc:title></dc:title>
      </cc:Work>
    </rdf:RDF>
  </metadata>
  <defs
     id="defs8" />
  <sodipodi:namedview
     pagecolor="#ffffff"
     bordercolor="#666666"
     borderopacity="1"
     objecttolerance="10"
     gridtolerance="10"
     guidetolerance="10"
     inkscape:pageopacity="0"
     inkscape:pageshadow="2"
     inkscape:window-width="1920"
     inkscape:window-height="1016"
     id="namedview6"
     showgrid="false"
     inkscape:zoom="14.75"
     inkscape:cx="8"
     inkscape:cy="8"
     inkscape:window-x="0"
     inkscape:window-y="27"
     inkscape:window-maximized="1"
     inkscape:current-layer="svg4" />
  <path
     style="opacity:0.5;fill:#404040;fill-opacity:1"
     d="M 4 0 C 2 0 2 2 2 2 L 2 14 C 2 16 4 16 4 16 L 12 16 C 12 16 14 16 14 14 L 14 3 L 11 0 L 4 0 z M 8.1113281 1 L 8.1132812 1 C 8.8289757 1 9.4579802 1.0966587 10.019531 1.3417969 L 10.015625 1.3359375 C 10.020145 1.3377775 10.022844 1.34189 10.027344 1.34375 C 10.033664 1.34653 10.042528 1.3448362 10.048828 1.3476562 L 10.640625 1.6132812 L 10.640625 1.7539062 C 10.874778 1.9046566 11.146668 2.0132128 11.332031 2.2148438 C 11.668541 2.5755986 11.90937 3.014326 12.039062 3.4902344 C 12.158516 3.8723675 12.225416 4.2694423 12.228516 4.6699219 L 12.228516 4.6738281 L 12.228516 4.6777344 C 12.228516 5.175009 12.126849 5.6599492 11.919922 6.0917969 L 11.916016 6.0996094 L 11.912109 6.1074219 C 11.871362 6.1886308 11.820471 6.2661653 11.775391 6.3457031 C 11.996717 6.6348386 12 7 12 7 L 11.998047 8.0019531 L 10.40625 8.0019531 C 10.201996 8.192946 10.010519 8.3874735 9.8417969 8.5917969 L 9.8261719 8.6113281 C 9.8261719 8.6113281 9.8261719 8.6132812 9.8261719 8.6132812 C 9.7232515 8.7326393 9.6338253 8.864612 9.5507812 9.0019531 L 11.998047 9.0019531 L 11.998047 11 L 12 11 L 12 13 C 12 14 11 14 11 14 L 9.9980469 13.998047 L 10 11.001953 L 9.328125 11.001953 L 9.3339844 11.117188 L 8.203125 11.117188 C 8.6138723 11.199118 9.0524079 11.289568 9.3261719 11.59375 C 9.6551216 11.959108 9.8574219 12.489399 9.8574219 12.980469 C 9.8574219 13.471296 9.6555875 13.999438 9.3242188 14.367188 L 9.3242188 14.369141 C 8.9618457 14.770185 8.3670831 14.998047 7.8398438 14.998047 C 7.3097155 14.998047 6.7165697 14.76841 6.3554688 14.367188 C 6.2060029 14.20131 6.0874693 14.001117 5.9980469 13.787109 L 5.9980469 14.001953 L 5 14 C 4 14 4 13 4 13 L 3.9980469 12.001953 L 5.9980469 12.001953 L 5.9980469 12.164062 C 6.0882949 11.955209 6.2079149 11.757758 6.3652344 11.587891 C 6.6366516 11.292117 7.069936 11.199245 7.4765625 11.117188 L 6.3554688 11.117188 L 6.3359375 11.001953 L 3.9980469 11.001953 L 3.9980469 9.0019531 L 6.1933594 9.0019531 C 6.2325629 8.7316398 6.2924745 8.4650262 6.3964844 8.2109375 L 6.40625 8.1894531 L 6.4140625 8.1699219 C 6.5572899 7.8594798 6.7398332 7.570128 6.9472656 7.2988281 L 6.9648438 7.265625 L 6.9980469 7.2246094 L 6.9980469 6.0058594 L 8.1113281 6.0058594 C 8.1921329 5.9199522 8.2773484 5.8345509 8.3554688 5.7480469 L 8.3515625 5.75 C 8.5068189 5.5769151 8.6231735 5.406592 8.7109375 5.2324219 L 8.71875 5.21875 L 8.7265625 5.2050781 C 8.7911165 5.0862807 8.8222656 4.9689686 8.8222656 4.8144531 C 8.8222656 4.53723 8.7642171 4.4219719 8.6347656 4.296875 L 8.6269531 4.2910156 L 8.6210938 4.2851562 C 8.5200992 4.1841616 8.3394755 4.0859375 7.9082031 4.0859375 C 7.3738549 4.0859375 6.8411616 4.2299314 6.2832031 4.5078125 L 5.0800781 5.4023438 L 3.4101562 2.8183594 L 4.9160156 1.7695312 L 4.9765625 1.7382812 C 5.4120887 1.5159649 5.8709635 1.3416198 6.34375 1.2167969 L 6.3476562 1.2148438 L 6.3496094 1.2148438 C 6.911899 1.070424 7.5020304 1 8.1113281 1 z M 10 11.001953 L 11.998047 11.001953 L 11.998047 11 L 10 11 L 10 11.001953 z M 10.023438 2.859375 C 10.025637 2.861465 10.025144 2.8650875 10.027344 2.8671875 C 10.029444 2.8693275 10.033056 2.8689438 10.035156 2.8710938 L 10.023438 2.859375 z M 5 6 L 5.9980469 6.0058594 L 5.9980469 8.0058594 L 3.9980469 8.0058594 L 4 7 C 4 7 4 6 5 6 z M 7.6171875 8.3652344 L 7.609375 8.3828125 C 7.611035 8.3793425 7.6135744 8.3765069 7.6152344 8.3730469 C 7.6164383 8.3706169 7.6159775 8.3676644 7.6171875 8.3652344 z "
     id="path2" />
  <g
     id="g821"
     style="fill:#808080"
     transform="translate(-0.161,-0.0365)">
    <path
       id="path819"
       word-spacing="0"
       style="font-weight:500;font-size:72.03600311px;line-height:125%;font-family:Ubuntu;-inkscape-font-specification:'Ubuntu Medium';text-align:center;letter-spacing:0;word-spacing:0;text-anchor:middle"
       letter-spacing="0"
       font-weight="500"
       font-size="72.036"
       d="M 8.271,2.037 C 7.738,2.037 7.234,2.098 6.759,2.22 A 5.853,5.853 0 0 0 5.592,2.666 L 4.934,3.124 5.5,4 5.952,3.664 c 0.688,-0.35 1.394,-0.54 2.116,-0.54 0.607,0 1.09,0.16 1.421,0.491 0.327,0.316 0.493,0.737 0.493,1.236 0,0.311 -0.073,0.603 -0.217,0.868 C 9.635,5.977 9.466,6.222 9.257,6.455 9.052,6.682 8.837,6.91 8.609,7.137 v 0.001 a 6.392,6.392 0 0 0 -0.633,0.7 L 7.975,7.84 A 3.66,3.66 0 0 0 7.483,8.626 2.378,2.378 0 0 0 7.306,9.561 c 0,0.208 0.024,0.403 0.056,0.594 H 8.45 C 8.449,10.132 8.44,10.111 8.44,10.087 V 9.9 C 8.44,9.513 8.517,9.16 8.672,8.85 8.822,8.536 9.008,8.251 9.229,7.995 L 9.231,7.993 C 9.449,7.729 9.689,7.478 9.952,7.238 a 7.23,7.23 0 0 0 0.7,-0.734 c 0.21,-0.253 0.384,-0.522 0.527,-0.807 0.138,-0.288 0.209,-0.613 0.209,-0.982 A 3.06,3.06 0 0 0 11.241,3.801 L 11.24,3.799 V 3.797 A 2.04,2.04 0 0 0 10.758,2.93 C 10.524,2.675 10.206,2.464 9.801,2.3 V 2.298 C 9.416,2.126 8.906,2.037 8.273,2.037 Z M 8.001,12 c -0.326,0 -0.562,0.1 -0.743,0.3 a 1.025,1.025 0 0 0 -0.275,0.718 c 0,0.279 0.089,0.512 0.275,0.718 0.18,0.2 0.417,0.3 0.742,0.3 0.325,0 0.562,-0.099 0.743,-0.3 0.186,-0.206 0.275,-0.44 0.275,-0.718 0,-0.28 -0.089,-0.512 -0.275,-0.718 C 8.563,12.1 8.325,12 8,12 Z"
       inkscape:connector-curvature="0" />
  </g>
  <g
     transform="translate(-0.161,-0.0365)"
     style="fill:#808080;stroke:#000000;stroke-opacity:1;stroke-width:2;stroke-miterlimit:4;stroke-dasharray:none"
     id="g836" />
</svg>
